X:27
T:Polka du Prigord
C:trad
A:Prigord
O:France
M:2/4
L:1/8
Q:1/4=130
K:C
GA/2B/2 cc|B/2c/2d/2B/2 c2|d/2e/2f/2d/2 ec|d/2e/2f/2d/2 ec|
GA/2B/2 cc|B/2c/2d/2B/2 c2|d/2e/2f/2d/2 eg|g/2f/2e/2d/2 c2:|
|:ge c/2e/2g/2e/2|c/2e/2g/2e/2 fd|fd B/2d/2f/2d/2|1B/2d/2f/2d/2 ec:|2B/2d/2f/2d/2 c2||
